X: 1
T: When Charlie Comes   [Am]
Z: arr. Terry Traub; from Laura Risk
R: reel
M: 4/4
L: 1/8
K: Ador
|:\
"Am"AAAB eAAB | "Am"AAAe "G"dBGB |\
"Am"AAAB ABdA | "Am"eAdA "G"BGGB :|
|:\
A/A/A ag aAAB | "Am"A/A/A af "G"gGGB |\
"Am"A/A/A ag aged | "C"e/f/g "D"fd "G"gGGB :|
